svg/flag.svg

<svg xmlns="http://www.w3.org/2000/svg" viewBox="0 0 47 64" enable-background="new 0 0 47 64"><style type="text/css">.st0{fill:#343434;}</style><title>flag</title><desc>Created with Sketch.</desc><path class="st0" d="M36.8 20l8.9-12.7c1.3-1.8.5-3.3-1.7-3.3h-40v-2c0-1.1-.9-2-2-2s-2 .9-2 2v60c0 1.1.9 2 2 2s2-.9 2-2v-26h40c2.2 0 3-1.5 1.7-3.3l-8.9-12.7zm-32.8 12v-24h36.3l-8.4 12 8.4 12h-36.3z"/></svg>

<svg xmlns="http://www.w3.org/2000/svg" viewBox="0 0 47 64"><path d="M36.8 20l8.9-12.7C47 5.5 46.2 4 44 4H4V2c0-1.1-.9-2-2-2S0 .9 0 2v60c0 1.1.9 2 2 2s2-.9 2-2V36h40c2.2 0 3-1.5 1.7-3.3L36.8 20zM4 32V8h36.3l-8.4 12 8.4 12H4z" fill="#343434"/></svg>
